!!!COM: Palestrina, Giovanni Perluigi da
!!!OPR: Missa Ave Maria (1596)
!!!OMD: Sanctus
!!!OTL: Hosanna
**kern	**kern	**kern	**kern	**kern	**kern
*Ibass	*Itenor	*Itenor	*Icalto	*Icalto	*Icant
!Bassus	!Tenor 2	!Tenor 1	!Altus 2	!Altus 1	!Cantus
*clefF4	*clefGv2	*clefGv2	*clefG2	*clefG2	*clefG2
*k[b-]	*k[b-]	*k[b-]	*k[b-]	*k[b-]	*k[b-]
*F:ion	*F:ion	*F:ion	*F:ion	*F:ion	*F:ion
*M3/2	*M3/2	*M3/2	*M3/2	*M3/2	*M3/2
=88	=88	=88	=88	=88	=88
1r	1r	1B-	1r	1b-	1dd
2r	2r	2B-	2r	2b-	2dd
=89	=89	=89	=89	=89	=89
1r	1r	1f	1r	1a	1cc
2r	2r	2f	2r	2a	2cc
=90	=90	=90	=90	=90	=90
1r	1r	2.B-	1f	2.b-	2.dd
.	.	4c	.	4a	4cc
2r	2r	2d	2f	2f	2a
=91	=91	=91	=91	=91	=91
1r	1r	1c	1e	2g	2.cc
.	.	.	.	2g	.
.	.	.	.	.	4b-
2r	2r	2c	2e	[2cc	2g
=92	=92	=92	=92	=92	=92
1r	1r	2.F	2.f	4cc]	2.a
.	.	.	.	4b-	.
.	.	.	.	2.a	.
.	.	4G	4e	.	4b-
2r	2r	2A	2c	.	2cc
.	.	.	.	4g	.
=93	=93	=93	=93	=93	=93
1r	1r	2B-	2d	1f	1b-
.	.	1F	1c	.	.
2r	2r	.	.	2f	2a
=94	=94	=94	=94	=94	=94
1B-	1r	2.f	2B-	2.d	1.b-
.	.	.	2.d	.	.
.	.	4e	.	4e	.
2B-	2r	2d	.	4f	.
.	.	.	4e	4g	.
=95	=95	=95	=95	=95	=95
1A	1r	2.c	2f	2.a	1r
.	.	.	2e	.	.
.	.	4d	.	4b-	.
2A	2r	4e	2c	2cc	2r
.	.	4f	.	.	.
=96	=96	=96	=96	=96	=96
2.B-	1r	2g	2.d	1b-	1r
.	.	2.f	.	.	.
4A	.	.	4e	.	.
2F	2r	.	2f	2a	2r
.	.	4e	.	.	.
=97	=97	=97	=97	=97	=97
2A	1r	2c	2r	2.f	1r
1G	.	2d	2b-	.	.
.	.	.	.	8e	.
.	.	.	.	8d	.
.	2r	2B-	2b-	2e	2r
=98	=98	=98	=98	=98	=98
2.F	1r	1c	1a	2f	1ff
.	.	.	.	2r	.
4E	.	.	.	.	.
2D	2r	2d	2b-	2f	2ff
=99	=99	=99	=99	=99	=99
1.C	1r	1.G	2.cc	2g	1ee
.	.	.	.	2c	.
.	.	.	4b-	.	.
.	2r	.	2g	2e	2ee
=100	=100	=100	=100	=100	=100
1r	1r	1r	2.a	2.d	2.ff
.	.	.	4g	4e	4ee
2r	2r	2r	2a	2f	2cc
=101	=101	=101	=101	=101	=101
1r	1r	2r	2.b-	2B-	2dd
.	.	2F	.	1f	1cc
.	.	.	8a	.	.
.	.	.	8g	.	.
2r	2r	2F	2a	.	.
=102	=102	=102	=102	=102	=102
1BB-	1r	1B-	2b-	1d	1dd
.	.	.	2f	.	.
2BB-	2r	2B-	2g	2r	2dd
=103	=103	=103	=103	=103	=103
1F	1r	1A	1a	1f	1cc
2BB-	2r	2F	2b-	2f	2dd
=104	=104	=104	=104	=104	=104
1C	1r	1c	2g	1e	2.ee
.	.	.	2.cc	.	.
.	.	.	.	.	4ff
2C	2r	2c	.	2e	2gg
.	.	.	4b-	.	.
=105	=105	=105	=105	=105	=105
2.D	1r	2.F	4a	2.f	2ff
.	.	.	4g	.	.
.	.	.	2.a	.	1f
4E	.	4G	.	4e	.
2F	2r	2A	.	2c	.
.	.	.	4g	.	.
=106	=106	=106	=106	=106	=106
2BB-	1r	2B-	2.f	2d	2f
1C	.	1G	.	1c	1cc
.	.	.	8e	.	.
.	.	.	8d	.	.
.	2r	.	2e	.	.
=107	=107	=107	=107	=107	=107
2F	1r	2F	[1.f	2c	2a
2.BB-	.	2.f	.	4B-	2.dd
.	.	.	.	4c	.
.	2r	.	.	4d	.
4C	.	4e	.	4e	4cc
=108	=108	=108	=108	=108	=108
4D	1r	2d	1.f]	2.f	1b-
4E	.	.	.	.	.
1F	.	1c	.	.	.
.	.	.	.	4e	.
.	2r	.	.	2c	2a
=109	=109	=109	=109	=109	=109
2BB-	[1.B-	2B-	2r	2.d	[1.b-
2BB-	.	2d	2f	.	.
.	.	.	.	4c	.
2BB-	.	2d	2f	4B-	.
.	.	.	.	4A	.
=110	=110	=110	=110	=110	=110
2.E-	1.B-]	2.e-	2.g	2G	1.b-]
.	.	.	.	2g	.
4F	.	4d	4f	.	.
2G	.	2B-	2d	2g	.
=111	=111	=111	=111	=111	=111
1F	[1.A	1c	2.f	2.a	1r
.	.	.	4e-	4b-	.
2F	.	[2f	2c	2cc	2r
=112	=112	=112	=112	=112	=112
2.D	1.A]	4f]	4d	1.f	1ff
.	.	4e	4e	.	.
.	.	1d	4f	.	.
4E	.	.	4g	.	.
4F	.	.	2a	.	2ff
4G	.	.	.	.	.
=113	=113	=113	=113	=113	=113
2A	[1.A	2c	2a	2r	1ee
1AA	.	2c	1a	2e	.
.	.	2c	.	[2a	2ee
=114	=114	=114	=114	=114	=114
4D	1.A]	2d	2f	4a]	2.ff
4E	.	.	.	4g	.
4F	.	2.a	2r	2f	.
4G	.	.	.	.	4ee
2A	.	.	2r	2e	2cc
.	.	4g	.	.	.
=115	=115	=115	=115	=115	=115
2D	[1.A	2f	2.a	2d	2.dd
1AA	.	1e	.	2e	.
.	.	.	4g	.	8cc#
.	.	.	.	.	8b
.	.	.	2e	[2a	2cc#
=116	=116	=116	=116	=116	=116
2.D	1.A]	2d	2.f	2a]	1dd
.	.	2.a	.	2f	.
4E	.	.	4e	.	.
2F	.	.	2c	2r	2r
.	.	4g	.	.	.
=117	=117	=117	=117	=117	=117
1.BB-	1.B-	4f	2d	1b-	1dd
.	.	4e	.	.	.
.	.	4d	4B-	.	.
.	.	4c	4c	.	.
.	.	2B-	4d	2b-	2dd
.	.	.	4e	.	.
=118	=118	=118	=118	=118	=118
1r	[1.F	2c	1f	2.a	1cc
.	.	2A	.	.	.
.	.	.	.	4b-	.
2r	.	2A	2f	2cc	2a
=119	=119	=119	=119	=119	=119
2BB-	1.F]	2d	1.f	1b-	2b-
1F	.	1c	.	.	1cc
.	.	.	.	2a	.
=120	=120	=120	=120	=120	=120
2.BB-	1.F	2B-	2d	2b-	1dd
.	.	2d	2b-	1f	.
4C	.	.	.	.	.
4D	.	2d	2b-	.	2ff
4E	.	.	.	.	.
=121	=121	=121	=121	=121	=121
2.F	[1.A	1c	2.a	2f	1ff
.	.	.	.	1a	.
4G	.	.	4b-	.	.
2A	.	2c	2cc	.	2ee
=122	=122	=122	=122	=122	=122
2.D	1.A]	2.d	1.f	1a	1dd
4E	.	4c	.	.	.
2F	.	2A	.	2f	2cc
=123	=123	=123	=123	=123	=123
2.C	1.G	2.c	2r	2g	2.ee-
.	.	.	2r	2.g	.
4D	.	4B-	.	.	4dd
2E-	.	4G	2g	.	2b-
.	.	4A	.	4f	.
=124	=124	=124	=124	=124	=124
2BB-	1.G	2B-	2g	2d	2dd
1C	.	2G	2g	1e-	1cc
.	.	2g	2cc	.	.
=125	=125	=125	=125	=125	=125
2.G	[1.B-	2.g	2.b-	2B-	1dd
.	.	.	.	2G	.
4A	.	4f	4a	.	.
2B-	.	2d	2f	2b-	2r
=126	=126	=126	=126	=126	=126
2.E-	1.B-]	1e-	1g	1b-	2gg
.	.	.	.	.	2gg
4F	.	.	.	.	.
2G	.	2d	2g	2b-	[2gg
=127	=127	=127	=127	=127	=127
2.C	[1.c	2.c	2.e-	1.g	4gg]
.	.	.	.	.	4ff
.	.	.	.	.	4ee-
4D	.	4B-	4f	.	4dd
2E	.	2G	2g	.	4cc
.	.	.	.	.	4b-
=128	=128	=128	=128	=128	=128
2F	1.c]	2A	1f	2c	4a
.	.	.	.	.	4b
1C	.	1G	.	1g	1cc
.	.	.	2e	.	.
=129	=129	=129	=129	=129	=129
1.F	1.c	1.F	1.f	1.a	1.cc
==	==	==	==	==	==
*-	*-	*-	*-	*-	*-
!!!CDT: 1525/^1526/-1594/2/2
!!!OCY: Italia
!!!AGN: Mass (Tenor)
!!!AST: renaissance, vocal
!!!ASW: Motet 1563 (Palestrina)
!!!PWK: Masses, Book 6
!!!RNB: Cadence finals: C
!!!YOR: Le Opere Complete, v. 21, p. 142
!!!YOO: Rome, Italy: Fratelli Scalera
!!!END: 1992//
!!!EED: John Miller
!!!YEC: Copyright 2000, John Miller
!!!YEN: United States of America
!!!YEM: Rights to all derivative electronic formats reserved.
!!!YEM: Refer to licensing agreement for further details.
!!!YEM: This file must be accompanied by the licensing agreement.
!!!YEM: A copy of the licensing agreement may be found at http://www.music-cog.ohio-state.edu/HumdrumDatabases/Palestrina/license.txt
!!!EMD: converted to Humdrum by Bret Aarden
